X:1
T:Title
%%score { 1 | 2 }
L:1/8
M:4/4
K:G
V:1 treble nm="Grand Piano"
V:2 bass 
V:1
 z4 z2[Q:1/4=108] D2 | D2 G2 G2 A2 | B2 d4 B2 | [DGB]3 [CDA] [B,DG]2 [A,DF]2 |[M:3/4] [B,DG]6 | %5
[M:1/4] D2 |[M:4/4] E2 G2 D2 G2 | G2 B4 d2 | d3 B A2 [^CGA]2 |[M:3/4] [FA]6 |[M:1/4] [FA]2 | %11
[M:4/4] [FA]2 [GB]2 [Ac]2 [Ac]2 | [Ac]2 B4 d2 | d3 B G2 [EA]2 |[M:3/4] [^DB]6 |[M:1/4] [DB]2 | %16
[M:4/4] [EA]2 [G,EG]2 [G,DF]2 [G,CE]2 | [G,B,D]2 [B,DG]4 [Gd]2 | [Fd]3 [FA] [FB]3 [CFA] | %19
 [B,DG]6 z2 | d B3 G3 A | B6 z2 | [DB] [B,DG]3 [G,B,D]3 [G,CE] | [B,DG]6 [B,DG]2 | %24
 [DFA]2 [DFA]2 [DGB]2 [DGB]2 |[M:11/8] [CGc]2 [Ge]-[Ge]-[Ge]- [Ge]3 [Ge]3 | %26
[M:4/4] [Gd] [GB]3 [GB]3 [FA] |[M:3/4] [DG]6 |] %28
V:2
 z4 z2 [G,B,]2 | [G,B,]2 [G,B,D]2 [G,B,D]2 [G,CD]2 | [G,DG]2 [G,B,G]4 [G,DG]2 | D,3 D, D,2 D,2 | %4
[M:3/4] G,,6 |[M:1/4] [B,,G,]2 |[M:4/4] [C,G,C]2 [E,G,C]2 [G,B,]2[K:treble] [G,B,D]2 | %7
 [G,B,D]2 [G,DG]4 [G,B,G]2 | [G,B,G]3 [G,DG] [A,DF]2[K:bass] A,,2 |[M:3/4] [D,D]6 |[M:1/4] [D,D]2 | %11
[M:4/4] [D,D]2 [D,D]2 [D,D]2 [D,D]2 | [G,D]2 [G,DG]4 [G,B,G]2 | %13
 [G,B,G]3 [G,B,D][K:bass] [E,B,E]2 [C,E,]2 |[M:3/4] [B,,F,]6 |[M:1/4] [B,,F,]2 | %16
[M:4/4] [C,E,]2 C,2 C,2 C,2 | G,,2 G,,4 [G,B,]2 | [D,A,]3 [D,D] [D,D]3 D, | G,,6 z2 | %20
 [G,B,G] [G,DG]3 [G,B,D]3 [G,CD] | [G,DG]6 z2 | [G,,G,] G,,3 G,,3 G,, | G,,6 G,2 | %24
 D,2 D,2 G,2 =F,2 |[M:11/8] E,2 [C,C]-[C,C]-[C,C]- [C,C]3 [C,C]3 | %26
[M:4/4] [D,B,] [D,D]3 [D,D]3 [D,C] |[M:3/4] [G,B,]6 |] %28

